images/content/johnson-solids/sphenomegacorona.svg

<?xml version="1.0" encoding="UTF-8"?>
<svg xmlns="http://www.w3.org/2000/svg" xmlns:xlink="http://www.w3.org/1999/xlink" width="255.39pt" height="184.47pt" viewBox="0 0 255.39 184.47" version="1.2">
<defs>
<clipPath id="clip1">
  <path d="M 0.0625 132 L 105 132 L 105 183.941406 L 0.0625 183.941406 Z M 0.0625 132 "/>
</clipPath>
<clipPath id="clip2">
  <path d="M 0.0625 131 L 106 131 L 106 183.941406 L 0.0625 183.941406 Z M 0.0625 131 "/>
</clipPath>
<clipPath id="clip3">
  <path d="M 94 73 L 189 73 L 189 183.941406 L 94 183.941406 Z M 94 73 "/>
</clipPath>
<clipPath id="clip4">
  <path d="M 0.0625 63 L 95 63 L 95 173 L 0.0625 173 Z M 0.0625 63 "/>
</clipPath>
<clipPath id="clip5">
  <path d="M 0.0625 63 L 96 63 L 96 174 L 0.0625 174 Z M 0.0625 63 "/>
</clipPath>
<clipPath id="clip6">
  <path d="M 188 12 L 254.71875 12 L 254.71875 120 L 188 120 Z M 188 12 "/>
</clipPath>
<clipPath id="clip7">
  <path d="M 188 12 L 254.71875 12 L 254.71875 121 L 188 121 Z M 188 12 "/>
</clipPath>
<clipPath id="clip8">
  <path d="M 104 73 L 208 73 L 208 183.941406 L 104 183.941406 Z M 104 73 "/>
</clipPath>
<clipPath id="clip9">
  <path d="M 135 0 L 254.71875 0 L 254.71875 74 L 135 74 Z M 135 0 "/>
</clipPath>
<clipPath id="clip10">
  <path d="M 134 0 L 254.71875 0 L 254.71875 74 L 134 74 Z M 134 0 "/>
</clipPath>
<clipPath id="clip11">
  <path d="M 0.0625 63 L 37 63 L 37 173 L 0.0625 173 Z M 0.0625 63 "/>
</clipPath>
<clipPath id="clip12">
  <path d="M 0.0625 63 L 38 63 L 38 174 L 0.0625 174 Z M 0.0625 63 "/>
</clipPath>
<clipPath id="clip13">
  <path d="M 0.0625 136 L 105 136 L 105 183.941406 L 0.0625 183.941406 Z M 0.0625 136 "/>
</clipPath>
<clipPath id="clip14">
  <path d="M 0.0625 136 L 106 136 L 106 183.941406 L 0.0625 183.941406 Z M 0.0625 136 "/>
</clipPath>
<clipPath id="clip15">
  <path d="M 135 0 L 254.71875 0 L 254.71875 20 L 135 20 Z M 135 0 "/>
</clipPath>
<clipPath id="clip16">
  <path d="M 134 0 L 254.71875 0 L 254.71875 21 L 134 21 Z M 134 0 "/>
</clipPath>
<clipPath id="clip17">
  <path d="M 191 12 L 254.71875 12 L 254.71875 120 L 191 120 Z M 191 12 "/>
</clipPath>
<clipPath id="clip18">
  <path d="M 191 12 L 254.71875 12 L 254.71875 121 L 191 121 Z M 191 12 "/>
</clipPath>
<clipPath id="clip19">
  <path d="M 7 131 L 126 131 L 126 183.941406 L 7 183.941406 Z M 7 131 "/>
</clipPath>
<clipPath id="clip20">
  <path d="M 6 131 L 127 131 L 127 183.941406 L 6 183.941406 Z M 6 131 "/>
</clipPath>
<clipPath id="clip21">
  <path d="M 104 119 L 208 119 L 208 183.941406 L 104 183.941406 Z M 104 119 "/>
</clipPath>
</defs>
<g id="surface1">
<g clip-path="url(#clip1)" clip-rule="nonzero">
<path style=" stroke:none;fill-rule:nonzero;fill:rgb(61.190796%,74.845886%,90.686035%);fill-opacity:1;" d="M 0.496094 172.824219 L 94.878906 132.363281 L 104.976562 183.503906 L 0.496094 172.824219 "/>
</g>
<g clip-path="url(#clip2)" clip-rule="nonzero">
<path style="fill:none;stroke-width:8.74;stroke-linecap:round;stroke-linejoin:round;stroke:rgb(13.729858%,12.159729%,12.548828%);stroke-opacity:1;stroke-miterlimit:10;" d="M 4.356391 111.492407 L 950.896225 517.264263 L 1052.162903 4.388694 Z M 4.356391 111.492407 " transform="matrix(0.0997135,0,0,-0.0997135,0.0617027,183.941518)"/>
</g>
<g clip-path="url(#clip3)" clip-rule="nonzero">
<path style="fill-rule:nonzero;fill:rgb(47.32666%,62.136841%,85.169983%);fill-opacity:1;stroke-width:8.74;stroke-linecap:round;stroke-linejoin:round;stroke:rgb(13.729858%,12.159729%,12.548828%);stroke-opacity:1;stroke-miterlimit:10;" d="M 1052.162903 4.388694 L 950.896225 517.264263 L 1889.405239 1107.196527 " transform="matrix(0.0997135,0,0,-0.0997135,0.0617027,183.941518)"/>
</g>
<g clip-path="url(#clip4)" clip-rule="nonzero">
<path style=" stroke:none;fill-rule:nonzero;fill:rgb(80.883789%,62.695312%,68.110657%);fill-opacity:1;" d="M 36.691406 63.757812 L 94.878906 132.363281 L 0.496094 172.824219 L 36.691406 63.757812 "/>
</g>
<g clip-path="url(#clip5)" clip-rule="nonzero">
<path style="fill:none;stroke-width:8.74;stroke-linecap:round;stroke-linejoin:round;stroke:rgb(13.729858%,12.159729%,12.548828%);stroke-opacity:1;stroke-miterlimit:10;" d="M 367.349442 1205.290052 L 950.896225 517.264263 L 4.356391 111.492407 Z M 367.349442 1205.290052 " transform="matrix(0.0997135,0,0,-0.0997135,0.0617027,183.941518)"/>
</g>
<path style="fill-rule:nonzero;fill:rgb(75.228882%,54.360962%,63.909912%);fill-opacity:1;stroke-width:8.74;stroke-linecap:round;stroke-linejoin:round;stroke:rgb(13.729858%,12.159729%,12.548828%);stroke-opacity:1;stroke-miterlimit:10;" d="M 950.896225 517.264263 L 367.349442 1205.290052 L 1356.393858 1840.39078 " transform="matrix(0.0997135,0,0,-0.0997135,0.0617027,183.941518)"/>
<path style="fill-rule:nonzero;fill:rgb(75.228882%,54.360962%,63.909912%);fill-opacity:1;stroke-width:8.74;stroke-linecap:round;stroke-linejoin:round;stroke:rgb(13.729858%,12.159729%,12.548828%);stroke-opacity:1;stroke-miterlimit:10;" d="M 1356.393858 1840.39078 L 1889.405239 1107.196527 L 950.896225 517.264263 " transform="matrix(0.0997135,0,0,-0.0997135,0.0617027,183.941518)"/>
<g clip-path="url(#clip6)" clip-rule="nonzero">
<path style=" stroke:none;fill-rule:nonzero;fill:rgb(31.916809%,45.843506%,76.385498%);fill-opacity:1;" d="M 207.5 119.816406 L 188.460938 73.539062 L 254.28125 12.6875 L 207.5 119.816406 "/>
</g>
<g clip-path="url(#clip7)" clip-rule="nonzero">
<path style="fill:none;stroke-width:8.74;stroke-linecap:round;stroke-linejoin:round;stroke:rgb(13.729858%,12.159729%,12.548828%);stroke-opacity:1;stroke-miterlimit:10;" d="M 2080.342874 643.093497 L 1889.405239 1107.196527 L 2549.499444 1717.460476 Z M 2080.342874 643.093497 " transform="matrix(0.0997135,0,0,-0.0997135,0.0617027,183.941518)"/>
</g>
<g clip-path="url(#clip8)" clip-rule="nonzero">
<path style="fill-rule:nonzero;fill:rgb(47.32666%,62.136841%,85.169983%);fill-opacity:1;stroke-width:8.74;stroke-linecap:round;stroke-linejoin:round;stroke:rgb(13.729858%,12.159729%,12.548828%);stroke-opacity:1;stroke-miterlimit:10;" d="M 1889.405239 1107.196527 L 2080.342874 643.093497 L 1052.162903 4.388694 " transform="matrix(0.0997135,0,0,-0.0997135,0.0617027,183.941518)"/>
</g>
<g clip-path="url(#clip9)" clip-rule="nonzero">
<path style=" stroke:none;fill-rule:nonzero;fill:rgb(67.375183%,44.767761%,58.901978%);fill-opacity:1;" d="M 254.28125 12.6875 L 188.460938 73.539062 L 135.3125 0.429688 L 254.28125 12.6875 "/>
</g>
<g clip-path="url(#clip10)" clip-rule="nonzero">
<path style="fill:none;stroke-width:8.74;stroke-linecap:round;stroke-linejoin:round;stroke:rgb(13.729858%,12.159729%,12.548828%);stroke-opacity:1;stroke-miterlimit:10;" d="M 2549.499444 1717.460476 L 1889.405239 1107.196527 L 1356.393858 1840.39078 Z M 2549.499444 1717.460476 " transform="matrix(0.0997135,0,0,-0.0997135,0.0617027,183.941518)"/>
</g>
<g clip-path="url(#clip11)" clip-rule="nonzero">
<path style=" stroke:none;fill-rule:nonzero;fill:rgb(79.263306%,51.731873%,12.380981%);fill-opacity:1;" d="M 36.691406 63.757812 L 0.496094 172.824219 L 7.339844 136.589844 L 36.691406 63.757812 "/>
</g>
<g clip-path="url(#clip12)" clip-rule="nonzero">
<path style="fill:none;stroke-width:8.74;stroke-linecap:round;stroke-linejoin:round;stroke:rgb(13.729858%,12.159729%,12.548828%);stroke-opacity:1;stroke-miterlimit:10;" d="M 367.349442 1205.290052 L 4.356391 111.492407 L 72.990518 474.877205 Z M 367.349442 1205.290052 " transform="matrix(0.0997135,0,0,-0.0997135,0.0617027,183.941518)"/>
</g>
<g clip-path="url(#clip13)" clip-rule="nonzero">
<path style=" stroke:none;fill-rule:nonzero;fill:rgb(52.388%,14.91394%,28.948975%);fill-opacity:1;" d="M 0.496094 172.824219 L 104.976562 183.503906 L 7.339844 136.589844 L 0.496094 172.824219 "/>
</g>
<g clip-path="url(#clip14)" clip-rule="nonzero">
<path style="fill:none;stroke-width:8.74;stroke-linecap:round;stroke-linejoin:round;stroke:rgb(13.729858%,12.159729%,12.548828%);stroke-opacity:1;stroke-miterlimit:10;" d="M 4.356391 111.492407 L 1052.162903 4.388694 L 72.990518 474.877205 Z M 4.356391 111.492407 " transform="matrix(0.0997135,0,0,-0.0997135,0.0617027,183.941518)"/>
</g>
<path style=" stroke:none;fill-rule:nonzero;fill:rgb(74.066162%,31.793213%,15.675354%);fill-opacity:1;" d="M 62.320312 22.3125 L 135.3125 0.429688 L 36.691406 63.757812 L 62.320312 22.3125 "/>
<path style="fill:none;stroke-width:8.74;stroke-linecap:round;stroke-linejoin:round;stroke:rgb(13.729858%,12.159729%,12.548828%);stroke-opacity:1;stroke-miterlimit:10;" d="M 624.374848 1620.93394 L 1356.393858 1840.39078 L 367.349442 1205.290052 Z M 624.374848 1620.93394 " transform="matrix(0.0997135,0,0,-0.0997135,0.0617027,183.941518)"/>
<path style=" stroke:none;fill-rule:nonzero;fill:rgb(18.844604%,20.173645%,54.055786%);fill-opacity:1;" d="M 62.320312 22.3125 L 36.691406 63.757812 L 7.339844 136.589844 L 62.320312 22.3125 "/>
<path style="fill:none;stroke-width:8.74;stroke-linecap:round;stroke-linejoin:round;stroke:rgb(13.729858%,12.159729%,12.548828%);stroke-opacity:1;stroke-miterlimit:10;" d="M 624.374848 1620.93394 L 367.349442 1205.290052 L 72.990518 474.877205 Z M 624.374848 1620.93394 " transform="matrix(0.0997135,0,0,-0.0997135,0.0617027,183.941518)"/>
<path style=" stroke:none;fill-rule:nonzero;fill:rgb(43.247986%,80.886841%,95.962524%);fill-opacity:1;" d="M 191.507812 19.617188 L 135.3125 0.429688 L 62.320312 22.3125 L 191.507812 19.617188 "/>
<path style="fill:none;stroke-width:8.74;stroke-linecap:round;stroke-linejoin:round;stroke:rgb(13.729858%,12.159729%,12.548828%);stroke-opacity:1;stroke-miterlimit:10;" d="M 1919.961528 1647.964504 L 1356.393858 1840.39078 L 624.374848 1620.93394 Z M 1919.961528 1647.964504 " transform="matrix(0.0997135,0,0,-0.0997135,0.0617027,183.941518)"/>
<g clip-path="url(#clip15)" clip-rule="nonzero">
<path style=" stroke:none;fill-rule:nonzero;fill:rgb(38.931274%,79.786682%,95.553589%);fill-opacity:1;" d="M 254.28125 12.6875 L 135.3125 0.429688 L 191.507812 19.617188 L 254.28125 12.6875 "/>
</g>
<g clip-path="url(#clip16)" clip-rule="nonzero">
<path style="fill:none;stroke-width:8.74;stroke-linecap:round;stroke-linejoin:round;stroke:rgb(13.729858%,12.159729%,12.548828%);stroke-opacity:1;stroke-miterlimit:10;" d="M 2549.499444 1717.460476 L 1356.393858 1840.39078 L 1919.961528 1647.964504 Z M 2549.499444 1717.460476 " transform="matrix(0.0997135,0,0,-0.0997135,0.0617027,183.941518)"/>
</g>
<g clip-path="url(#clip17)" clip-rule="nonzero">
<path style=" stroke:none;fill-rule:nonzero;fill:rgb(90.019226%,68.984985%,61.837769%);fill-opacity:1;" d="M 207.5 119.816406 L 254.28125 12.6875 L 191.507812 19.617188 L 207.5 119.816406 "/>
</g>
<g clip-path="url(#clip18)" clip-rule="nonzero">
<path style="fill:none;stroke-width:8.74;stroke-linecap:round;stroke-linejoin:round;stroke:rgb(13.729858%,12.159729%,12.548828%);stroke-opacity:1;stroke-miterlimit:10;" d="M 2080.342874 643.093497 L 2549.499444 1717.460476 L 1919.961528 1647.964504 Z M 2080.342874 643.093497 " transform="matrix(0.0997135,0,0,-0.0997135,0.0617027,183.941518)"/>
</g>
<g clip-path="url(#clip19)" clip-rule="nonzero">
<path style=" stroke:none;fill-rule:nonzero;fill:rgb(61.576843%,29.722595%,42.51709%);fill-opacity:1;" d="M 7.339844 136.589844 L 104.976562 183.503906 L 125.976562 131.519531 L 7.339844 136.589844 "/>
</g>
<g clip-path="url(#clip20)" clip-rule="nonzero">
<path style="fill:none;stroke-width:8.74;stroke-linecap:round;stroke-linejoin:round;stroke:rgb(13.729858%,12.159729%,12.548828%);stroke-opacity:1;stroke-miterlimit:10;" d="M 72.990518 474.877205 L 1052.162903 4.388694 L 1262.766253 525.726005 Z M 72.990518 474.877205 " transform="matrix(0.0997135,0,0,-0.0997135,0.0617027,183.941518)"/>
</g>
<g clip-path="url(#clip21)" clip-rule="nonzero">
<path style=" stroke:none;fill-rule:nonzero;fill:rgb(77.31781%,39.207458%,29.2099%);fill-opacity:1;" d="M 125.976562 131.519531 L 104.976562 183.503906 L 207.5 119.816406 L 125.976562 131.519531 "/>
<path style="fill:none;stroke-width:8.74;stroke-linecap:round;stroke-linejoin:round;stroke:rgb(13.729858%,12.159729%,12.548828%);stroke-opacity:1;stroke-miterlimit:10;" d="M 1262.766253 525.726005 L 1052.162903 4.388694 L 2080.342874 643.093497 Z M 1262.766253 525.726005 " transform="matrix(0.0997135,0,0,-0.0997135,0.0617027,183.941518)"/>
</g>
<path style=" stroke:none;fill-rule:nonzero;fill:rgb(86.375427%,64.84375%,63.012695%);fill-opacity:1;" d="M 125.976562 131.519531 L 207.5 119.816406 L 191.507812 19.617188 L 125.976562 131.519531 "/>
<path style="fill:none;stroke-width:8.74;stroke-linecap:round;stroke-linejoin:round;stroke:rgb(13.729858%,12.159729%,12.548828%);stroke-opacity:1;stroke-miterlimit:10;" d="M 1262.766253 525.726005 L 2080.342874 643.093497 L 1919.961528 1647.964504 Z M 1262.766253 525.726005 " transform="matrix(0.0997135,0,0,-0.0997135,0.0617027,183.941518)"/>
<path style=" stroke:none;fill-rule:nonzero;fill:rgb(64.405823%,56.5979%,77.1698%);fill-opacity:1;" d="M 7.339844 136.589844 L 125.976562 131.519531 L 62.320312 22.3125 L 7.339844 136.589844 "/>
<path style="fill:none;stroke-width:8.74;stroke-linecap:round;stroke-linejoin:round;stroke:rgb(13.729858%,12.159729%,12.548828%);stroke-opacity:1;stroke-miterlimit:10;" d="M 72.990518 474.877205 L 1262.766253 525.726005 L 624.374848 1620.93394 Z M 72.990518 474.877205 " transform="matrix(0.0997135,0,0,-0.0997135,0.0617027,183.941518)"/>
<path style=" stroke:none;fill-rule:nonzero;fill:rgb(69.075012%,61.956787%,79.850769%);fill-opacity:1;" d="M 125.976562 131.519531 L 191.507812 19.617188 L 62.320312 22.3125 L 125.976562 131.519531 "/>
<path style="fill:none;stroke-width:8.74;stroke-linecap:round;stroke-linejoin:round;stroke:rgb(13.729858%,12.159729%,12.548828%);stroke-opacity:1;stroke-miterlimit:10;" d="M 1262.766253 525.726005 L 1919.961528 1647.964504 L 624.374848 1620.93394 Z M 1262.766253 525.726005 " transform="matrix(0.0997135,0,0,-0.0997135,0.0617027,183.941518)"/>
</g>
</svg>

<svg xmlns="http://www.w3.org/2000/svg" width="340.52" height="245.96" viewBox="0 0 255.39 184.47" version="1.2"><defs><clipPath id="a"><path d="M.063 132H105v51.941H.062Zm0 0"/></clipPath><clipPath id="b"><path d="M.063 131H106v52.941H.062Zm0 0"/></clipPath><clipPath id="c"><path d="M94 73h95v110.941H94Zm0 0"/></clipPath><clipPath id="d"><path d="M.063 63H95v110H.062Zm0 0"/></clipPath><clipPath id="e"><path d="M.063 63H96v111H.062Zm0 0"/></clipPath><clipPath id="f"><path d="M188 12h66.719v108H188Zm0 0"/></clipPath><clipPath id="g"><path d="M188 12h66.719v109H188Zm0 0"/></clipPath><clipPath id="h"><path d="M104 73h104v110.941H104Zm0 0"/></clipPath><clipPath id="i"><path d="M135 0h119.719v74H135Zm0 0"/></clipPath><clipPath id="j"><path d="M134 0h120.719v74H134Zm0 0"/></clipPath><clipPath id="k"><path d="M.063 63H37v110H.062Zm0 0"/></clipPath><clipPath id="l"><path d="M.063 63H38v111H.062Zm0 0"/></clipPath><clipPath id="m"><path d="M.063 136H105v47.941H.062Zm0 0"/></clipPath><clipPath id="n"><path d="M.063 136H106v47.941H.062Zm0 0"/></clipPath><clipPath id="o"><path d="M135 0h119.719v20H135Zm0 0"/></clipPath><clipPath id="p"><path d="M134 0h120.719v21H134Zm0 0"/></clipPath><clipPath id="q"><path d="M191 12h63.719v108H191Zm0 0"/></clipPath><clipPath id="r"><path d="M191 12h63.719v109H191Zm0 0"/></clipPath><clipPath id="s"><path d="M7 131h119v52.941H7Zm0 0"/></clipPath><clipPath id="t"><path d="M6 131h121v52.941H6Zm0 0"/></clipPath><clipPath id="u"><path d="M104 119h104v64.941H104Zm0 0"/></clipPath></defs><g clip-path="url(#a)"><path style="stroke:none;fill-rule:nonzero;fill:#9cbfe7;fill-opacity:1" d="m.496 172.824 94.383-40.46 10.098 51.14-104.48-10.68"/></g><g clip-path="url(#b)"><path style="fill:none;stroke-width:8.74;stroke-linecap:round;stroke-linejoin:round;stroke:#231f20;stroke-opacity:1;stroke-miterlimit:10" d="m4.356 111.492 946.54 405.772L1052.163 4.39Zm0 0" transform="matrix(.09971 0 0 -.09971 .062 183.942)"/></g><g clip-path="url(#c)"><path style="fill-rule:nonzero;fill:#799ed9;fill-opacity:1;stroke-width:8.74;stroke-linecap:round;stroke-linejoin:round;stroke:#231f20;stroke-opacity:1;stroke-miterlimit:10" d="M1052.163 4.389 950.896 517.264l938.51 589.933" transform="matrix(.09971 0 0 -.09971 .062 183.942)"/></g><g clip-path="url(#d)"><path style="stroke:none;fill-rule:nonzero;fill:#cea0ae;fill-opacity:1" d="m36.691 63.758 58.188 68.605L.496 172.824 36.691 63.758"/></g><g clip-path="url(#e)"><path style="fill:none;stroke-width:8.74;stroke-linecap:round;stroke-linejoin:round;stroke:#231f20;stroke-opacity:1;stroke-miterlimit:10" d="m367.35 1205.29 583.546-688.026L4.356 111.492Zm0 0" transform="matrix(.09971 0 0 -.09971 .062 183.942)"/></g><path style="fill-rule:nonzero;fill:#c08ba3;fill-opacity:1;stroke-width:8.74;stroke-linecap:round;stroke-linejoin:round;stroke:#231f20;stroke-opacity:1;stroke-miterlimit:10" d="M950.896 517.264 367.35 1205.29l989.045 635.1" transform="matrix(.09971 0 0 -.09971 .062 183.942)"/><path style="fill-rule:nonzero;fill:#c08ba3;fill-opacity:1;stroke-width:8.74;stroke-linecap:round;stroke-linejoin:round;stroke:#231f20;stroke-opacity:1;stroke-miterlimit:10" d="m1356.394 1840.39 533.011-733.193-938.509-589.933" transform="matrix(.09971 0 0 -.09971 .062 183.942)"/><g clip-path="url(#f)"><path style="stroke:none;fill-rule:nonzero;fill:#5175c3;fill-opacity:1" d="M207.5 119.816 188.46 73.54l65.821-60.852-46.781 107.13"/></g><g clip-path="url(#g)"><path style="fill:none;stroke-width:8.74;stroke-linecap:round;stroke-linejoin:round;stroke:#231f20;stroke-opacity:1;stroke-miterlimit:10" d="m2080.343 643.093-190.938 464.104L2549.5 1717.46Zm0 0" transform="matrix(.09971 0 0 -.09971 .062 183.942)"/></g><g clip-path="url(#h)"><path style="fill-rule:nonzero;fill:#799ed9;fill-opacity:1;stroke-width:8.74;stroke-linecap:round;stroke-linejoin:round;stroke:#231f20;stroke-opacity:1;stroke-miterlimit:10" d="m1889.405 1107.197 190.938-464.104L1052.163 4.39" transform="matrix(.09971 0 0 -.09971 .062 183.942)"/></g><g clip-path="url(#i)"><path style="stroke:none;fill-rule:nonzero;fill:#ac7296;fill-opacity:1" d="m254.281 12.688-65.82 60.851L135.312.43l118.97 12.258"/></g><g clip-path="url(#j)"><path style="fill:none;stroke-width:8.74;stroke-linecap:round;stroke-linejoin:round;stroke:#231f20;stroke-opacity:1;stroke-miterlimit:10" d="m2549.5 1717.46-660.095-610.263-533.011 733.194Zm0 0" transform="matrix(.09971 0 0 -.09971 .062 183.942)"/></g><g clip-path="url(#k)"><path style="stroke:none;fill-rule:nonzero;fill:#ca8420;fill-opacity:1" d="M36.691 63.758.496 172.824 7.34 136.59 36.69 63.758"/></g><g clip-path="url(#l)"><path style="fill:none;stroke-width:8.74;stroke-linecap:round;stroke-linejoin:round;stroke:#231f20;stroke-opacity:1;stroke-miterlimit:10" d="M367.35 1205.29 4.355 111.492l68.635 363.385Zm0 0" transform="matrix(.09971 0 0 -.09971 .062 183.942)"/></g><g clip-path="url(#m)"><path style="stroke:none;fill-rule:nonzero;fill:#86264a;fill-opacity:1" d="m.496 172.824 104.48 10.68L7.34 136.59.496 172.824"/></g><g clip-path="url(#n)"><path style="fill:none;stroke-width:8.74;stroke-linecap:round;stroke-linejoin:round;stroke:#231f20;stroke-opacity:1;stroke-miterlimit:10" d="M4.356 111.492 1052.163 4.39 72.99 474.877Zm0 0" transform="matrix(.09971 0 0 -.09971 .062 183.942)"/></g><path style="stroke:none;fill-rule:nonzero;fill:#bd5128;fill-opacity:1" d="M62.32 22.313 135.313.43 36.69 63.758l25.63-41.446"/><path style="fill:none;stroke-width:8.74;stroke-linecap:round;stroke-linejoin:round;stroke:#231f20;stroke-opacity:1;stroke-miterlimit:10" d="m624.375 1620.934 732.019 219.457-989.045-635.1Zm0 0" transform="matrix(.09971 0 0 -.09971 .062 183.942)"/><path style="stroke:none;fill-rule:nonzero;fill:#30338a;fill-opacity:1" d="M62.32 22.313 36.691 63.758 7.34 136.59 62.32 22.312"/><path style="fill:none;stroke-width:8.74;stroke-linecap:round;stroke-linejoin:round;stroke:#231f20;stroke-opacity:1;stroke-miterlimit:10" d="M624.375 1620.934 367.349 1205.29 72.991 474.877Zm0 0" transform="matrix(.09971 0 0 -.09971 .062 183.942)"/><path style="stroke:none;fill-rule:nonzero;fill:#6ecef5;fill-opacity:1" d="M191.508 19.617 135.312.43 62.32 22.313l129.188-2.696"/><path style="fill:none;stroke-width:8.74;stroke-linecap:round;stroke-linejoin:round;stroke:#231f20;stroke-opacity:1;stroke-miterlimit:10" d="m1919.962 1647.965-563.568 192.426-732.02-219.457Zm0 0" transform="matrix(.09971 0 0 -.09971 .062 183.942)"/><g clip-path="url(#o)"><path style="stroke:none;fill-rule:nonzero;fill:#63cbf4;fill-opacity:1" d="M254.281 12.688 135.312.43l56.196 19.187 62.773-6.93"/></g><g clip-path="url(#p)"><path style="fill:none;stroke-width:8.74;stroke-linecap:round;stroke-linejoin:round;stroke:#231f20;stroke-opacity:1;stroke-miterlimit:10" d="m2549.5 1717.46-1193.106 122.93 563.568-192.425Zm0 0" transform="matrix(.09971 0 0 -.09971 .062 183.942)"/></g><g clip-path="url(#q)"><path style="stroke:none;fill-rule:nonzero;fill:#e6b09e;fill-opacity:1" d="m207.5 119.816 46.781-107.129-62.773 6.93 15.992 100.2"/></g><g clip-path="url(#r)"><path style="fill:none;stroke-width:8.74;stroke-linecap:round;stroke-linejoin:round;stroke:#231f20;stroke-opacity:1;stroke-miterlimit:10" d="m2080.343 643.093 469.156 1074.367-629.537-69.495Zm0 0" transform="matrix(.09971 0 0 -.09971 .062 183.942)"/></g><g clip-path="url(#s)"><path style="stroke:none;fill-rule:nonzero;fill:#9d4c6c;fill-opacity:1" d="m7.34 136.59 97.637 46.914 21-51.984L7.34 136.59"/></g><g clip-path="url(#t)"><path style="fill:none;stroke-width:8.74;stroke-linecap:round;stroke-linejoin:round;stroke:#231f20;stroke-opacity:1;stroke-miterlimit:10" d="M72.99 474.877 1052.164 4.39l210.603 521.337Zm0 0" transform="matrix(.09971 0 0 -.09971 .062 183.942)"/></g><g clip-path="url(#u)"><path style="stroke:none;fill-rule:nonzero;fill:#c5644a;fill-opacity:1" d="m125.977 131.52-21 51.984L207.5 119.816l-81.523 11.704"/><path style="fill:none;stroke-width:8.74;stroke-linecap:round;stroke-linejoin:round;stroke:#231f20;stroke-opacity:1;stroke-miterlimit:10" d="M1262.766 525.726 1052.163 4.389l1028.18 638.704Zm0 0" transform="matrix(.09971 0 0 -.09971 .062 183.942)"/></g><path style="stroke:none;fill-rule:nonzero;fill:#dca5a1;fill-opacity:1" d="m125.977 131.52 81.523-11.704-15.992-100.199-65.531 111.903"/><path style="fill:none;stroke-width:8.74;stroke-linecap:round;stroke-linejoin:round;stroke:#231f20;stroke-opacity:1;stroke-miterlimit:10" d="m1262.766 525.726 817.577 117.367-160.381 1004.872Zm0 0" transform="matrix(.09971 0 0 -.09971 .062 183.942)"/><path style="stroke:none;fill-rule:nonzero;fill:#a490c5;fill-opacity:1" d="m7.34 136.59 118.637-5.07L62.32 22.312 7.34 136.59"/><path style="fill:none;stroke-width:8.74;stroke-linecap:round;stroke-linejoin:round;stroke:#231f20;stroke-opacity:1;stroke-miterlimit:10" d="m72.99 474.877 1189.776 50.849-638.391 1095.208Zm0 0" transform="matrix(.09971 0 0 -.09971 .062 183.942)"/><path style="stroke:none;fill-rule:nonzero;fill:#b09ecc;fill-opacity:1" d="m125.977 131.52 65.53-111.903L62.32 22.312l63.657 109.208"/><path style="fill:none;stroke-width:8.74;stroke-linecap:round;stroke-linejoin:round;stroke:#231f20;stroke-opacity:1;stroke-miterlimit:10" d="m1262.766 525.726 657.196 1122.239-1295.587-27.031Zm0 0" transform="matrix(.09971 0 0 -.09971 .062 183.942)"/></svg>
